X:1
T:[ID 3-19a]
T:[ID 3-19a]
T:Bezeichnung standardisiert: Menuet Prinz Ferdinand ; Menuet / Printz Ferdinand In dieser Quelle auch als: Menuet In dieser Quelle auch als: Printz Ferdinand Men.
T:Urheber unbekannt Datum in der hier transkribierten schriftlichen Quelle: 1792
C:Urheber unbekannt
C:Datum in der hier transkribierten schriftlichen Quelle: 1792
%%score 1 2
L:1/8
M:3/4
K:G
V:1 treble nm="Primo"
V:2 treble nm="Secondo"
V:1
 d3 e d2 | d3 e d2 | d2 dfge | d2 c2 B2 | e2 efge | d2 c2 B2 | D2 c2 B2 | B2 A4 :: A4 Bd | %9
 d2 c2 B2 | d4 e_f | _f4 e2 | c2 ec A2 | B2 dB G2 | Ac B2 A2 | A2 G4 :| %16
V:2
 !fermata!B3 c B2 | B3 c B2 | B2 cdec | B2 A2 G2 | c2 cdec | B2 A2 G2 | F2 A2 F2 | G2 F4 :: F4 GB | %9
 B2 A2 G2 | B4 cd | d4 c2 | A2 cA F2 | G2 BG B,2 | CE D2 C2 | C2 B,4 :| %16

